X:1
T:Children, Go Where I Send Thee
M:4/4
L:1/4
Q:160
K:F
FA |: c2BA | Bc3 |
w:Child ren, go where I send thee!
f2cB | AHF3 || A F/F/ FC |
w:How shall I send thee? I'm gon na send thee
FFA2 | A F/F/ F/F/C/C/ | z FA2 |
w:one by one, One for the lit tle bit ty Ba by.
c4 | (cB3) | AFC E/(F/ |F) || zFA :|
w:Born, born,_ Born in Beth le hem._ Child ren,